app/assets/images/Contenido/Tienda.svg

<svg fill="none" height="46" viewBox="0 0 53 46" width="53" xmlns="http://www.w3.org/2000/svg"><path d="m6.29035 5.75h40.41935c1.5879 0 2.887-1.29375 2.887-2.875s-1.2991-2.875-2.887-2.875h-40.41935c-1.5879 0-2.88709 1.29375-2.88709 2.875s1.29919 2.875 2.88709 2.875zm43.76835 5.175c-.2599-1.3225-1.4436-2.3-2.8294-2.3h-41.45862c-1.38581 0-2.56952.9775-2.82935 2.3l-2.8870974 14.375c-.3464516 1.7825 1.0104874 3.45 2.8293474 3.45h.51968v14.375c0 1.5813 1.29919 2.875 2.88709 2.875h23.09675c1.5879 0 2.8871-1.2937 2.8871-2.875v-14.375h11.5484v14.375c0 1.5813 1.2992 2.875 2.8871 2.875s2.887-1.2937 2.887-2.875v-14.375h.5197c1.8189 0 3.1758-1.6675 2.8294-3.45zm-23.5587 29.325h-17.32255v-11.5h17.32255z" fill="#222"/></svg>

<svg width="53" height="46" viewBox="0 0 53 46" fill="none" xmlns="http://www.w3.org/2000/svg">
<path d="M6.29035 5.75H46.7097C48.2976 5.75 49.5967 4.45625 49.5967 2.875C49.5967 1.29375 48.2976 0 46.7097 0H6.29035C4.70245 0 3.40326 1.29375 3.40326 2.875C3.40326 4.45625 4.70245 5.75 6.29035 5.75ZM50.0587 10.925C49.7988 9.6025 48.6151 8.625 47.2293 8.625H5.77068C4.38487 8.625 3.20116 9.6025 2.94133 10.925L0.0542326 25.3C-0.292219 27.0825 1.06472 28.75 2.88358 28.75H3.40326V43.125C3.40326 44.7063 4.70245 46 6.29035 46H29.3871C30.975 46 32.2742 44.7063 32.2742 43.125V28.75H43.8226V43.125C43.8226 44.7063 45.1218 46 46.7097 46C48.2976 46 49.5967 44.7063 49.5967 43.125V28.75H50.1164C51.9353 28.75 53.2922 27.0825 52.9458 25.3L50.0587 10.925ZM26.5 40.25H9.17745V28.75H26.5V40.25Z" fill="#222222"/>
</svg>
